X: 81
T: 78 Eatonwood Green
R: slip jig
M: 9/8
K: Ddorian
"D5"[DA]6cBG|A3d3cBG|"G5"B3-B2A BAG|dBG"D5"A6||
"A"e3a3ged|ecAa3aed|"C"ecG EGc edc|"G"dBG DGB dBd||
"Dm"d2f Ade fed|"C"ecg cef gfe|"F"afc' ea_b c'ba|"Bb"_bdf dba gab|
"Dm"adf dag fga|"C"gce cgf efg|"Dm"fed Ade fed|"C"edc Gcd eee||
"Dm"[Dd]3f3-f2f|"Gm"f3e6|"A"e3g6|"Dm"g3f6
"Bb"f2g1/2f1/2e6|"A"e2f1/2e1/2d6|^cde feg fed|fed e^cA GFE||
"D5"dAd fed def|"C5"e3 efe =cCG|"A"A^cA EAc edc|"Dm" DFA dfa d' z2||

